!!! OTL: Literature94
!!! Chapter: 5
!!! Section: III
!!! Page: 366
!!! Mode: 
!!! Encoder: DJB
**kern
*staff1
*I"Piano
=1-
*clefG2
*k[b-e-a-]
*E-:
*M2/4
4r
8r
8e-/
=2
4.g/
8e-/
=3
4.d/
8f/
=4
4.a-/
8f/
=5
4.e-/
8g/
=6
4b-\
4b-\
=7
4.b-\
8g/
=8
16b-/LL
16a-/J
8f/J
16a-/LL
16g/J
8e-/J
=9
4g/
8f/L
16B-/L
16An/JJ
=10
16B-/LL
16c/
16d/
16e-/JJ
16f/LL
16g/
16a-/
16g/JJ
=11
!!linebreak:original
8a-/L
8a-/J
8a-/L
16B-/L
16A-/JJ
=12
16B-/LL
16c/
16d/
16e-/JJ
16f/LL
16g/
16a-/
16g/JJ
=13
4.a-/
8an/
=14
4.b-\
8g/
=15
4.f/
8cc\
=16
4e-/
8.g/L
16f/Jk
=17
4e-/
4r
==
*-
